components/Icon/icons/typescript.svg

<svg width="50" height="50" viewBox="0 0 50 50" fill="none" xmlns="http://www.w3.org/2000/svg">
<path d="M0 25V50H50V0H0V25Z" fill="#007ACC"/>
<path d="M11.0568 25.166L11.041 27.2135H17.5488V45.7056H22.1523V27.2135H28.6602V25.2056C28.6602 24.0943 28.6363 23.1658 28.6047 23.142C28.5809 23.1103 24.6205 23.0943 19.8189 23.1023L11.0809 23.1262L11.057 25.1658L11.0568 25.166Z" fill="white"/>
<path d="M40.3451 23.0679C41.6148 23.3855 42.5832 23.9488 43.4721 24.8695C43.9324 25.3617 44.6148 26.2586 44.6705 26.4728C44.6861 26.5363 42.5117 27.9967 41.1943 28.814C41.1467 28.8459 40.956 28.6394 40.7418 28.3219C40.099 27.3855 39.4244 26.9806 38.3926 26.9094C36.8769 26.806 35.9006 27.5998 35.9086 28.925C35.9086 29.314 35.964 29.5441 36.1228 29.8617C36.4562 30.5521 37.0752 30.9648 39.0197 31.806C42.599 33.3459 44.1306 34.3617 45.0832 35.806C46.1467 37.4174 46.3847 39.9887 45.6625 41.9013C44.8689 43.9806 42.9008 45.3935 40.1306 45.8617C39.2736 46.0125 37.242 45.9887 36.3213 45.822C34.3135 45.4648 32.4086 44.4728 31.234 43.1713C30.7736 42.6633 29.8767 41.3379 29.9324 41.2426C29.9562 41.2109 30.1625 41.084 30.3926 40.949C30.6148 40.8221 31.4562 40.3377 32.2498 39.8775L33.6863 39.0441L33.9879 39.4887C34.4086 40.1314 35.3291 41.0125 35.8847 41.306C37.4799 42.1474 39.6705 42.0283 40.7498 41.0599C41.2101 40.6394 41.4006 40.2029 41.4006 39.5599C41.4006 38.9806 41.3291 38.7267 41.0275 38.2904C40.6389 37.7347 39.8451 37.2664 37.591 36.2904C35.0117 35.1791 33.9006 34.4887 32.8847 33.3933C32.2974 32.7586 31.7418 31.7426 31.5117 30.8933C31.3213 30.1871 31.2734 28.4172 31.4244 27.7029C31.9562 25.2107 33.8371 23.4728 36.5514 22.9568C37.4322 22.7902 39.4799 22.8537 40.3451 23.0681V23.0679Z" fill="white"/>
</svg>

<svg xmlns="http://www.w3.org/2000/svg" width="100%" height="100%" fill="none" 
viewBox="0 0 50 50" xmlns:v="https://vecta.io/nano"><path d="M0 25V50H50V0H0V25Z" fill="#007acc"/><path d="M11.057 25.166l-.016 2.047h6.508v18.492h4.604V27.214h6.508v-2.008l-.055-2.064c-.024-.032-3.984-.048-8.786-.04l-8.738.024-.024 2.04zm29.288-2.098c1.27.318 2.238.881 3.127 1.802.46.492 1.143 1.389 1.198 1.603.016.064-2.159 1.524-3.476 2.341-.048.032-.238-.175-.453-.492-.643-.936-1.317-1.341-2.349-1.412-1.516-.103-2.492.69-2.484 2.016 0 .389.055.619.214.937.333.69.952 1.103 2.897 1.944 3.579 1.54 5.111 2.556 6.063 4 1.064 1.611 1.302 4.183.579 6.095-.794 2.079-2.762 3.492-5.532 3.96-.857.151-2.889.127-3.809-.04-2.008-.357-3.913-1.349-5.087-2.651-.46-.508-1.357-1.833-1.302-1.929.024-.032.23-.159.46-.294l3.294-1.905.302.445c.421.643 1.341 1.524 1.897 1.817 1.595.841 3.786.722 4.865-.246.46-.42.651-.857.651-1.5 0-.579-.072-.833-.373-1.27-.389-.556-1.182-1.024-3.437-2-2.579-1.111-3.69-1.802-4.706-2.897a6.6 6.6 0 0 1-1.373-2.5c-.19-.706-.238-2.476-.087-3.19.532-2.492 2.413-4.23 5.127-4.746.881-.167 2.928-.103 3.794.111h0z" fill="#fff"/></svg>
